X:1
T:Title
%%score 1 { 2 | 3 }
L:1/8
Q:1/4=100
M:4/4
K:G
V:1 treble nm="Grand Piano, Piano"
V:2 bass nm="Grand Piano, Piano"
V:3 bass 
V:1
 [CG]4 [CG]4 | [CA]2 [DB]2 [Ec]2 [Fd]2 | [Gd]8 |] %3
w: A men,~|a * * *|men.~|
V:2
 E,4 E,4 | E,4 A,2 C2 | B,8 |] %3
V:3
 C,4 C,4 | A,,8 | G,,8 |] %3

